src/assets/images/icons/trello.svg

<svg width="24" height="24" viewBox="0 0 24 24" fill="none" xmlns="http://www.w3.org/2000/svg">
<path d="M19 3H5C3.89543 3 3 3.89543 3 5V19C3 20.1046 3.89543 21 5 21H19C20.1046 21 21 20.1046 21 19V5C21 3.89543 20.1046 3 19 3Z" stroke="#181D27" stroke-width="2" stroke-linecap="round" stroke-linejoin="round"/>
<path d="M10 7H7V16H10V7Z" stroke="#181D27" stroke-width="2" stroke-linecap="round" stroke-linejoin="round"/>
<path d="M17 7H14V12H17V7Z" stroke="#181D27" stroke-width="2" stroke-linecap="round" stroke-linejoin="round"/>
</svg>

<svg xmlns="http://www.w3.org/2000/svg" fill="none" viewBox="0 0 24 24"><path stroke="#181D27" stroke-linecap="round" stroke-linejoin="round" stroke-width="2" d="M19 3H5a2 2 0 0 0-2 2v14a2 2 0 0 0 2 2h14a2 2 0 0 0 2-2V5a2 2 0 0 0-2-2"/><path stroke="#181D27" stroke-linecap="round" stroke-linejoin="round" stroke-width="2" d="M10 7H7v9h3zM17 7h-3v5h3z"/></svg>
